packages/icons/svgs/solid/Source=hyperlink.svg

<svg xmlns="http://www.w3.org/2000/svg" width="12" height="12" viewBox="0 0 12 12"><path d="M8.25 2.25H7.5c-.45 0-.75.3-.75.75s.3.75.75.75h.75c1.275 0 2.25.975 2.25 2.25s-.975 2.25-2.25 2.25H7.5c-.45 0-.75.3-.75.75s.3.75.75.75h.75C10.35 9.75 12 8.1 12 6s-1.65-3.75-3.75-3.75Zm-3.75 6h-.75C2.475 8.25 1.5 7.275 1.5 6s.975-2.25 2.25-2.25h.75c.45 0 .75-.3.75-.75s-.3-.75-.75-.75h-.75C1.65 2.25 0 3.9 0 6s1.65 3.75 3.75 3.75h.75c.45 0 .75-.3.75-.75s-.3-.75-.75-.75Z"/><path d="M3 6c0 .45.3.75.75.75h4.5c.45 0 .75-.3.75-.75s-.3-.75-.75-.75h-4.5c-.45 0-.75.3-.75.75Z"/></svg>

<svg width="12" height="12" viewBox="0 0 12 12" fill="none" xmlns="http://www.w3.org/2000/svg">
<path d="M8.25 2.25H7.5C7.05 2.25 6.75 2.55 6.75 3C6.75 3.45 7.05 3.75 7.5 3.75H8.25C9.525 3.75 10.5 4.725 10.5 6C10.5 7.275 9.525 8.25 8.25 8.25H7.5C7.05 8.25 6.75 8.55 6.75 9C6.75 9.45 7.05 9.75 7.5 9.75H8.25C10.35 9.75 12 8.1 12 6C12 3.9 10.35 2.25 8.25 2.25Z" fill="black"/>
<path d="M4.5 8.25H3.75C2.475 8.25 1.5 7.275 1.5 6C1.5 4.725 2.475 3.75 3.75 3.75H4.5C4.95 3.75 5.25 3.45 5.25 3C5.25 2.55 4.95 2.25 4.5 2.25H3.75C1.65 2.25 0 3.9 0 6C0 8.1 1.65 9.75 3.75 9.75H4.5C4.95 9.75 5.25 9.45 5.25 9C5.25 8.55 4.95 8.25 4.5 8.25Z" fill="black"/>
<path d="M3 6C3 6.45 3.3 6.75 3.75 6.75H8.25C8.7 6.75 9 6.45 9 6C9 5.55 8.7 5.25 8.25 5.25H3.75C3.3 5.25 3 5.55 3 6Z" fill="black"/>
</svg>
